dist/svg/partner-close-o.svg

<svg width="16" height="16" viewBox="0 0 16 16" fill="rgb(34, 34, 34)" xmlns="http://www.w3.org/2000/svg"><title>partner-close-o</title><path d="M7.59999 7.17001C7.53699 7.14001 7.46399 7.12201 7.38599 7.12201C7.10999 7.12201 6.88599 7.34601 6.88599 7.62201C6.88599 7.74301 6.92899 7.85501 7.00099 7.94101L6.99999 7.94001L7.37999 8.23001L8.08999 7.52001L7.59999 7.17001Z" fill="rgb(34, 34, 34)" fill-opacity="1.00"/><path d="M7.50001 12.87C7.61601 12.967 7.74701 13.05 7.88901 13.116L7.90001 13.12C8.03901 13.179 8.19901 13.215 8.36801 13.22H8.37001L9.59001 12L6.59001 9L6.77001 8.82L6.16001 8.37C6.07401 8.298 5.96201 8.254 5.84001 8.254C5.56401 8.254 5.33901 8.478 5.33901 8.755C5.33901 8.909 5.40901 9.048 5.51901 9.139L5.52001 9.14L8.52001 11.36C8.70001 11.49 8.78001 11.56 8.81001 11.73C8.81601 11.756 8.81901 11.785 8.81901 11.815C8.81901 12.007 8.69001 12.169 8.51301 12.219L8.51001 12.22C8.48201 12.229 8.44901 12.234 8.41501 12.234C8.38101 12.234 8.34801 12.229 8.31801 12.219L8.32001 12.22C8.21801 12.155 8.12901 12.083 8.05001 12.001L8.04901 12L4.44901 9.36C4.00201 9.044 3.61501 8.735 3.24401 8.407L3.25901 8.42C2.39301 7.527 1.64201 6.515 1.03601 5.412L0.99901 5.34L3.55901 1.52L4.08901 1.7L4.69901 1.91C4.48701 2.179 4.35901 2.523 4.35901 2.896C4.35901 3.051 4.38101 3.2 4.42201 3.341L4.41901 3.33C4.51901 3.704 4.74701 4.014 5.05301 4.216L5.05901 4.22C5.23101 4.351 5.44301 4.438 5.67401 4.46H5.67901L9.40901 4.73L12.999 7.38L13.079 7.46C13.159 7.535 13.216 7.635 13.238 7.747L13.239 7.75C13.244 7.779 13.247 7.811 13.247 7.845C13.247 8.118 13.044 8.344 12.781 8.38H12.778C12.705 8.38 12.636 8.361 12.576 8.329L12.578 8.33L12.478 8.27L8.85801 5.57C8.78001 5.518 8.68401 5.486 8.58101 5.486C8.30501 5.486 8.08101 5.71 8.08101 5.986C8.08101 6.129 8.14101 6.258 8.23801 6.349L8.80801 6.769L8.99801 6.589L10.368 7.999L12.248 9.389L14.998 6.589L15.068 6.659C15.368 6.099 15.648 5.529 15.928 4.909C15.975 4.809 16.003 4.691 16.003 4.567C16.003 4.37 15.933 4.189 15.817 4.047L15.818 4.048L12.748 0.328001C12.602 0.151001 12.383 0.0390015 12.137 0.0390015C12.029 0.0390015 11.926 0.0610015 11.833 0.100001L11.838 0.0980015C10.956 0.469001 9.89501 0.812001 8.80001 1.07L8.65801 1.098C8.22201 1.193 7.72201 1.248 7.20801 1.248H6.37801C5.56001 1.049 4.89301 0.843001 4.24101 0.604001L4.37801 0.648001L3.68801 0.508001H3.46801C3.19601 0.511001 2.95701 0.652002 2.82001 0.865001L2.81801 0.868001L0.14801 4.868C0.0700103 4.991 0.0230103 5.142 0.0230103 5.303C0.0230103 5.464 0.0700103 5.615 0.15001 5.741L0.14801 5.738C0.68001 6.719 1.22301 7.556 1.82401 8.347L1.78801 8.298C1.61801 8.526 1.50901 8.807 1.48801 9.113V9.118C1.48601 9.148 1.48501 9.184 1.48501 9.219C1.48501 9.595 1.61801 9.941 1.84001 10.21L1.83801 10.207C2.01301 10.418 2.24401 10.578 2.50801 10.664L2.51801 10.667C2.48901 10.743 2.46501 10.834 2.44901 10.928L2.44801 10.937C2.44601 10.968 2.44501 11.004 2.44501 11.041C2.44501 11.42 2.57801 11.768 2.80101 12.04L2.79901 12.037C3.04001 12.335 3.39301 12.533 3.79401 12.567H3.79901H3.90901C4.04401 12.56 4.17001 12.535 4.28901 12.494L4.27901 12.497C4.33601 12.701 4.42801 12.878 4.55101 13.03L4.54901 13.027C4.77601 13.304 5.10901 13.488 5.48401 13.517H5.48901H5.57901C5.93101 13.516 6.25101 13.379 6.49001 13.156L6.48901 13.157L7.11901 12.577L7.50001 12.87ZM5.68001 2.42C5.78101 2.388 5.89701 2.37 6.01701 2.37C6.02901 2.37 6.04001 2.37 6.05201 2.371H6.05001L7.25001 2.311C7.83301 2.307 8.39801 2.242 8.94301 2.121L8.89001 2.131C10.117 1.851 11.176 1.508 12.191 1.082L12.06 1.131L15 4.601C14.62 5.478 14.249 6.201 13.838 6.897L13.89 6.801C13.829 6.736 13.764 6.677 13.694 6.624L13.69 6.621C13.368 6.337 13.016 6.061 12.648 5.806L12.61 5.781L12.36 5.601L10.8 4.471L10.43 4.201L10.11 3.951C9.99001 3.828 9.83201 3.742 9.65501 3.712L9.65001 3.711L7.85001 3.581L5.85001 3.431C5.64901 3.403 5.48801 3.256 5.44101 3.064L5.44001 3.061C5.42101 3.008 5.40901 2.947 5.40901 2.883C5.40901 2.686 5.51701 2.513 5.67701 2.422L5.68001 2.42ZM3.00001 9.75C2.87001 9.741 2.75601 9.677 2.68101 9.581L2.68001 9.58C2.60401 9.485 2.55801 9.364 2.55801 9.232C2.55801 9.217 2.55901 9.203 2.56001 9.188V9.19C2.55901 9.181 2.55901 9.171 2.55901 9.16C2.55901 9.149 2.55901 9.139 2.56001 9.129V9.13C2.72001 9.28 2.92001 9.45 3.19001 9.66C3.13701 9.704 3.07301 9.735 3.00301 9.75H3.00001ZM4.26001 11.47C4.18201 11.544 4.07601 11.589 3.96001 11.59C3.82801 11.579 3.71401 11.511 3.64101 11.411L3.64001 11.41C3.52601 11.309 3.45301 11.163 3.45001 11.001V11C3.45701 10.854 3.52101 10.723 3.62001 10.63L3.91001 10.36L4.00001 10.31L4.82001 10.92L4.26001 11.47ZM5.87001 12.47C5.81001 12.526 5.72901 12.56 5.64001 12.56C5.53901 12.553 5.45001 12.504 5.39101 12.431L5.39001 12.43C5.32701 12.353 5.28901 12.254 5.28901 12.145C5.28901 12.133 5.28901 12.12 5.29101 12.108V12.11C5.29701 11.991 5.35001 11.886 5.43101 11.81L5.71101 11.55L6.36101 12.03L5.87001 12.47Z" fill="rgb(34, 34, 34)" fill-opacity="1.00"/><path d="M13 12L16 9L15 8L12 11L9 8L8 9L11 12L8 15L9 16L12 13L15 16L16 15L13 12Z" fill="rgb(34, 34, 34)" fill-opacity="1.00"/></svg>

<!-- Generated by Trend Micro Style Portal -->
<svg version="1.1" xmlns="http://www.w3.org/2000/svg" width="16" height="16" viewBox="0 0 16 16">
  <title>partner-close-o</title>
  <path fill="rgb(34,34,34)" d="M7.6 7.17c-0.063-0.030-0.136-0.048-0.214-0.048-0.276 0-0.5 0.224-0.5 0.5 0 0.121 0.043 0.233 0.115 0.319l-0.001-0.001 0.38 0.29 0.71-0.71z"></path>
  <path fill="rgb(34,34,34)" d="M7.5 12.87c0.116 0.097 0.247 0.18 0.389 0.246l0.011 0.004c0.139 0.059 0.299 0.095 0.468 0.1l0.002 0 1.22-1.22-3-3 0.18-0.18-0.61-0.45c-0.086-0.072-0.198-0.116-0.32-0.116-0.276 0-0.501 0.224-0.501 0.501 0 0.154 0.070 0.293 0.18 0.384l0.001 0.001 3 2.22c0.18 0.13 0.26 0.2 0.29 0.37 0.006 0.026 0.009 0.055 0.009 0.085 0 0.192-0.129 0.354-0.306 0.404l-0.003 0.001c-0.028 0.009-0.061 0.014-0.095 0.014s-0.067-0.005-0.097-0.015l0.002 0.001c-0.102-0.065-0.191-0.137-0.27-0.219l-0.001-0.001-3.6-2.64c-0.447-0.316-0.834-0.625-1.205-0.953l0.015 0.013c-0.866-0.893-1.617-1.905-2.223-3.008l-0.037-0.072 2.56-3.82 0.53 0.18 0.61 0.21c-0.212 0.269-0.34 0.613-0.34 0.986 0 0.155 0.022 0.304 0.063 0.445l-0.003-0.011c0.1 0.374 0.328 0.684 0.634 0.886l0.006 0.004c0.172 0.131 0.384 0.218 0.615 0.24l0.005 0 3.73 0.27 3.59 2.65 0.080 0.080c0.080 0.075 0.137 0.175 0.159 0.287l0.001 0.003c0.005 0.029 0.008 0.061 0.008 0.095 0 0.273-0.203 0.499-0.466 0.535l-0.003 0c-0 0-0.001 0-0.001 0-0.073 0-0.141-0.019-0.201-0.051l0.002 0.001-0.1-0.060-3.62-2.7c-0.078-0.052-0.174-0.084-0.277-0.084-0.276 0-0.5 0.224-0.5 0.5 0 0.143 0.060 0.272 0.157 0.363l0 0 0.57 0.42 0.19-0.18 1.37 1.41 1.88 1.39 2.75-2.8 0.070 0.070c0.3-0.56 0.58-1.13 0.86-1.75 0.047-0.1 0.075-0.218 0.075-0.342 0-0.197-0.070-0.378-0.186-0.52l0.001 0.001-3.070-3.72c-0.146-0.177-0.365-0.289-0.611-0.289-0.108 0-0.211 0.022-0.304 0.061l0.005-0.002c-0.882 0.371-1.943 0.714-3.038 0.972l-0.142 0.028c-0.436 0.095-0.936 0.15-1.45 0.15h-0.83c-0.818-0.199-1.485-0.405-2.137-0.644l0.137 0.044-0.69-0.14h-0.22c-0.272 0.003-0.511 0.144-0.648 0.357l-0.002 0.003-2.67 4c-0.078 0.123-0.125 0.274-0.125 0.435s0.047 0.312 0.127 0.438l-0.002-0.003c0.532 0.981 1.075 1.818 1.676 2.609l-0.036-0.049c-0.17 0.228-0.279 0.509-0.3 0.815l-0 0.005c-0.002 0.030-0.003 0.066-0.003 0.101 0 0.376 0.133 0.722 0.355 0.991l-0.002-0.003c0.175 0.211 0.406 0.371 0.67 0.457l0.010 0.003c-0.029 0.076-0.053 0.167-0.069 0.261l-0.001 0.009c-0.002 0.031-0.003 0.067-0.003 0.104 0 0.379 0.133 0.727 0.356 0.999l-0.002-0.003c0.241 0.298 0.594 0.496 0.995 0.53l0.005 0h0.11c0.135-0.007 0.261-0.032 0.38-0.073l-0.010 0.003c0.057 0.204 0.149 0.381 0.272 0.533l-0.002-0.003c0.227 0.277 0.56 0.461 0.935 0.49l0.005 0h0.090c0.352-0.001 0.672-0.138 0.911-0.361l-0.001 0.001 0.63-0.58zM5.68 2.42c0.101-0.032 0.217-0.050 0.337-0.050 0.012 0 0.023 0 0.035 0.001l-0.002-0 1.2-0.060c0.583-0.004 1.148-0.069 1.693-0.19l-0.053 0.010c1.227-0.28 2.286-0.623 3.301-1.049l-0.131 0.049 2.94 3.47c-0.38 0.877-0.751 1.6-1.162 2.296l0.052-0.096c-0.061-0.065-0.126-0.124-0.196-0.177l-0.004-0.003c-0.322-0.284-0.674-0.56-1.042-0.815l-0.038-0.025-0.25-0.18-1.56-1.13-0.37-0.27-0.32-0.25c-0.12-0.123-0.278-0.209-0.455-0.239l-0.005-0.001-1.8-0.13-2-0.15c-0.201-0.028-0.362-0.175-0.409-0.367l-0.001-0.003c-0.019-0.053-0.031-0.114-0.031-0.178 0-0.197 0.108-0.37 0.268-0.461l0.003-0.001zM3 9.75v0c-0.13-0.009-0.244-0.073-0.319-0.169l-0.001-0.001c-0.076-0.095-0.122-0.216-0.122-0.348 0-0.015 0.001-0.029 0.002-0.044l-0 0.002c-0.001-0.009-0.001-0.019-0.001-0.030s0-0.021 0.001-0.031l-0 0.001c0.16 0.15 0.36 0.32 0.63 0.53-0.053 0.044-0.117 0.075-0.187 0.090l-0.003 0zM4.26 11.47c-0.078 0.074-0.184 0.119-0.3 0.12h-0c-0.132-0.011-0.246-0.079-0.319-0.179l-0.001-0.001c-0.114-0.101-0.187-0.247-0.19-0.409l-0-0.001c0.007-0.146 0.071-0.277 0.17-0.37l0.29-0.27 0.090-0.050 0.82 0.61zM5.87 12.47c-0.060 0.056-0.141 0.090-0.23 0.090h-0c-0.101-0.007-0.19-0.056-0.249-0.129l-0.001-0.001c-0.063-0.077-0.101-0.176-0.101-0.285 0-0.012 0-0.025 0.002-0.037l-0 0.002c0.006-0.119 0.059-0.224 0.14-0.3l0-0 0.28-0.26 0.65 0.48z"></path>
  <path fill="rgb(34,34,34)" d="M13 12l3-3-1-1-3 3-3-3-1 1 3 3-3 3 1 1 3-3 3 3 1-1-3-3z"></path>
</svg>
